icons/CalendarFrom_filled.svg

<svg width="24" height="24" viewBox="0 0 24 24" fill="none" xmlns="http://www.w3.org/2000/svg">
<path fill-rule="evenodd" clip-rule="evenodd" d="M8,2.5c0.41421,0 0.75,0.33579 0.75,0.75v1.25h6.5v-1.25c0,-0.41421 0.3358,-0.75 0.75,-0.75c0.4142,0 0.75,0.33579 0.75,0.75v1.25h1.25c1.5188,0 2.75,1.23122 2.75,2.75v4v0.75v0.5074l-0.6287,-0.6287c-1.1716,-1.1716 -3.0711,-1.1716 -4.2426,0c-0.0397,0.0396 -0.0779,0.0801 -0.1149,0.1213h-11.0138v7.25c0,0.6904 0.55964,1.25 1.25,1.25h6.3411c0.4751,0.3159 1.0455,0.5 1.6589,0.5h1.1708c-0.1139,0.3229 -0.1708,0.6615 -0.1708,1h-9c-1.51878,0 -2.75,-1.2312 -2.75,-2.75v-7.25v-0.75v-4c0,-1.51878 1.23122,-2.75 2.75,-2.75h1.25v-1.25c0,-0.41421 0.33579,-0.75 0.75,-0.75zM7.25,15.25c0,-0.4142 0.33579,-0.75 0.75,-0.75h2c0.4142,0 0.75,0.3358 0.75,0.75v2c0,0.4142 -0.3358,0.75 -0.75,0.75h-2c-0.41421,0 -0.75,-0.3358 -0.75,-0.75zM17.4697,22.5303c-0.2929,-0.2929 -0.2929,-0.7677 0,-1.0606l2.7197,-2.7197h-6.1894c-0.4142,0 -0.75,-0.3358 -0.75,-0.75c0,-0.4142 0.3358,-0.75 0.75,-0.75h6.1894l-2.7197,-2.7197c-0.2929,-0.2929 -0.2929,-0.7677 0,-1.0606c0.2929,-0.2929 0.7678,-0.2929 1.0606,0l4,4c0.2929,0.2929 0.2929,0.7677 0,1.0606l-4,4c-0.2928,0.2929 -0.7677,0.2929 -1.0606,0z" fill="#002B51"/>
</svg>

<svg width="24" height="24" viewBox="0 0 24 24" fill="none" xmlns="http://www.w3.org/2000/svg">
<path fill-rule="evenodd" clip-rule="evenodd" d="M8 2.5C8.41421 2.5 8.75 2.83579 8.75 3.25V4.5H15.25V3.25C15.25 2.83579 15.5858 2.5 16 2.5C16.4142 2.5 16.75 2.83579 16.75 3.25V4.5H18C19.5188 4.5 20.75 5.73122 20.75 7.25V11.25V12V12.5074L20.1213 11.8787C18.9497 10.7071 17.0502 10.7071 15.8787 11.8787C15.839 11.9183 15.8008 11.9588 15.7638 12H4.75V19.25C4.75 19.9404 5.30964 20.5 6 20.5H12.3411C12.8162 20.8159 13.3866 21 14 21H15.1708C15.0569 21.3229 15 21.6615 15 22H6C4.48122 22 3.25 20.7688 3.25 19.25V12V11.25V7.25C3.25 5.73122 4.48122 4.5 6 4.5H7.25V3.25C7.25 2.83579 7.58579 2.5 8 2.5ZM7.25 15.25C7.25 14.8358 7.58579 14.5 8 14.5H10C10.4142 14.5 10.75 14.8358 10.75 15.25V17.25C10.75 17.6642 10.4142 18 10 18H8C7.58579 18 7.25 17.6642 7.25 17.25V15.25ZM18.5303 22.5303L22.5303 18.5303C22.8232 18.2374 22.8232 17.7626 22.5303 17.4697L18.5303 13.4697C18.2375 13.1768 17.7626 13.1768 17.4697 13.4697C17.1768 13.7626 17.1768 14.2374 17.4697 14.5303L20.1894 17.25H14C13.5858 17.25 13.25 17.5858 13.25 18C13.25 18.4142 13.5858 18.75 14 18.75H20.1894L17.4697 21.4697C17.1768 21.7626 17.1768 22.2374 17.4697 22.5303C17.7626 22.8232 18.2375 22.8232 18.5303 22.5303Z" fill="#002B51"/>
</svg>
